!!!COM: Music21
!!!OTL: hornpipe_Harrington-Valley-Two-Step
!!!OMV: hornpipe_Harrington-Valley-Two-Step
**kern
*clefG2
*k[f#c#]
*D:
*M4/4
=1
4f#
4g
4r
4g#X
=||
2a
8aL
8bJ
8aL
8f#J
=
4d
4dd
4cc#
4b
=
2a
8aL
8bJ
8aL
8f#J
=
8dL
8f#J
8aL
8ddJ
4cc#
4dd
=
2ee
8eeL
8ff#J
8eeL
8cc#J
=
4a
8eeL
8ggJ
4ff#
4ee
!!linebreak:original
=
4.dd
8dd
4cc#
4b
=
4a
12aL
12a
12aJ
4g
4g#X
=||
2a
8aL
8bJ
8aL
8f#J
=
4d
4dd
4cc#
4b
=
2a
8aL
8bJ
8aL
8f#J
=
8dL
8f#J
8aL
8ddJ
4cc#
4dd
=
2ee
8eeL
8ff#J
8eeL
8cc#J
!!linebreak:original
=
4a
8eeL
8ggJ
4ff#
4ee
=
4.dd
8a
8bL
8aJ
8f#L
8aJ
=
4dd
12aL
12b
12cc#J
8ddL
8eeJ
8ff#L
8ggJ
=||
4aa
4r
4dd
4ee
=
2.ff#
8eeL
8ff#J
=
4gg
4ff#
4ee
4gg
=
2.b
4ccn
!!linebreak:original
=
4cc#
8cc#L
8cc#J
4cc#
8cc#L
8cc#J
=
8bL
8aJ
8aL
8bJ
4a
8aL
8bJ
=
8bL
8cc#J
8cc#L
8cc#J
8cc#L
8bJ
8bL
8bJ
=
8bL
8cc#J
8cc#L
8cc#J
8cc#L
8bJ
8bL
8bJ
=
12aL
12b
12cc#J
8ddL
8eeJ
8ff#L
8ggJ
4ryy
=||
4aa
4r
4dd
4ee
!!linebreak:original
=
2.ff#
8eeL
8ff#J
=
4gg
4ff#
4ee
4gg
=
2.b
4ccn
=
4cc#
8cc#L
8cc#J
4cc#
8cc#L
8cc#J
=
8bL
8aJ
8aL
8bJ
4a
12eeL
12ff#
12gg#XJ
=
4aa
8ff#L
8aaJ
8ggL
8eeJ
8cc#L
8aJ
=
4dd
4f#
4g
8g#X
8ryy
=||
*-
